app/assets/images/icons/active/user.svg

<?xml version="1.0" encoding="UTF-8" standalone="no"?>
<svg width="32px" height="232px" viewBox="0 0 32 232" version="1.1" xmlns="http://www.w3.org/2000/svg" xmlns:xlink="http://www.w3.org/1999/xlink" xmlns:sketch="http://www.bohemiancoding.com/sketch/ns">
    <title>user</title>
    <description>Created with Sketch (http://www.bohemiancoding.com/sketch)</description>
    <defs></defs>
    <g id="Graphics" stroke="none" stroke-width="1" fill="none" fill-rule="evenodd" sketch:type="MSPage">
        <path d="M19.7239652,131.217 L19.7239652,134.428 C19.7239652,134.428 19.7299934,136.868 18.0973565,137.779 C18.0973565,137.779 17.9798067,138.498 18.0742484,138.451 C18.1656761,138.404 17.7919278,141.68 20.6302043,142.097 C23.4664714,142.514 25.5723218,144.258 26.1048126,144.766 C26.6393128,145.274 27,149 27,149 L5.00009205,149 C5.00009205,149 4.97196046,145.96 5.89929822,144.766 C6.43480313,144.258 9.05907858,142.514 11.8983598,142.097 C14.7326174,141.68 13.784181,138.549 13.8786227,138.597 C13.9700504,138.644 13.8525005,137.925 13.8525005,137.925 C13.8525005,137.925 12.2791409,135.95 12.3032537,134.168 C12.3263618,132.386 12.3032537,131.217 12.3032537,131.217 C12.3032537,131.217 12.2449811,126.989 15.1475584,126.989 L16.9339143,127.768 C19.5401052,127.768 19.7239652,131.217 19.7239652,131.217 Z M19.7239652,131.217" id="user--white" fill="#206FAC" sketch:type="MSShapeGroup"></path>
        <path d="M19.7239652,91.217 L19.7239652,94.428 C19.7239652,94.428 19.7299934,96.868 18.0973565,97.779 C18.0973565,97.779 17.9798067,98.498 18.0742484,98.451 C18.1656761,98.404 17.7919278,101.68 20.6302043,102.097 C23.4664714,102.514 25.5723218,104.258 26.1048126,104.766 C26.6393128,105.274 27,109 27,109 L5.00009205,109 C5.00009205,109 4.97196046,105.96 5.89929822,104.766 C6.43480313,104.258 9.05907858,102.514 11.8983598,102.097 C14.7326174,101.68 13.784181,98.549 13.8786227,98.597 C13.9700504,98.644 13.8525005,97.925 13.8525005,97.925 C13.8525005,97.925 12.2791409,95.95 12.3032537,94.168 C12.3263618,92.386 12.3032537,91.217 12.3032537,91.217 C12.3032537,91.217 12.2449811,86.989 15.1475584,86.989 L16.9339143,87.768 C19.5401052,87.768 19.7239652,91.217 19.7239652,91.217 Z M19.7239652,91.217" id="user--subdued-grey" fill="#FFFFFF" sketch:type="MSShapeGroup"></path>
        <path d="M19.7239652,51.217 L19.7239652,54.428 C19.7239652,54.428 19.7299934,56.868 18.0973565,57.779 C18.0973565,57.779 17.9798067,58.498 18.0742484,58.451 C18.1656761,58.404 17.7919278,61.68 20.6302043,62.097 C23.4664714,62.514 25.5723218,64.258 26.1048126,64.766 C26.6393128,65.274 27,69 27,69 L5.00009205,69 C5.00009205,69 4.97196046,65.96 5.89929822,64.766 C6.43480313,64.258 9.05907858,62.514 11.8983598,62.097 C14.7326174,61.68 13.784181,58.549 13.8786227,58.597 C13.9700504,58.644 13.8525005,57.925 13.8525005,57.925 C13.8525005,57.925 12.2791409,55.95 12.3032537,54.168 C12.3263618,52.386 12.3032537,51.217 12.3032537,51.217 C12.3032537,51.217 12.2449811,46.989 15.1475584,46.989 L16.9339143,47.768 C19.5401052,47.768 19.7239652,51.217 19.7239652,51.217 Z M19.7239652,51.217" id="user--body-grey" fill="#67737B" sketch:type="MSShapeGroup"></path>
        <path d="M19.7239652,11.217 L19.7239652,14.428 C19.7239652,14.428 19.7299934,16.868 18.0973565,17.779 C18.0973565,17.779 17.9798067,18.498 18.0742484,18.451 C18.1656761,18.404 17.7919278,21.68 20.6302043,22.097 C23.4664714,22.514 25.5723218,24.258 26.1048126,24.766 C26.6393128,25.274 27,29 27,29 L5.00009205,29 C5.00009205,29 4.97196046,25.96 5.89929822,24.766 C6.43480313,24.258 9.05907858,22.514 11.8983598,22.097 C14.7326174,21.68 13.784181,18.549 13.8786227,18.597 C13.9700504,18.644 13.8525005,17.925 13.8525005,17.925 C13.8525005,17.925 12.2791409,15.95 12.3032537,14.168 C12.3263618,12.386 12.3032537,11.217 12.3032537,11.217 C12.3032537,11.217 12.2449811,6.989 15.1475584,6.989 L16.9339143,7.768 C19.5401052,7.768 19.7239652,11.217 19.7239652,11.217 Z M19.7239652,11.217" id="user--title-grey" fill="#3A434E" sketch:type="MSShapeGroup"></path>
    </g>
</svg>

<svg width="32" height="232" viewBox="0 0 32 232" xmlns="http://www.w3.org/2000/svg" xmlns:sketch="http://www.bohemiancoding.com/sketch/ns"><title>user</title><g sketch:type="MSPage" fill="none"><path d="M19.724 131.217v3.211s.006 2.44-1.627 3.351c0 0-.118.719-.023.672.091-.047-.282 3.229 2.556 3.646 2.836.417 4.942 2.161 5.475 2.669.535.508.895 4.234.895 4.234h-22s-.028-3.04.899-4.234c.536-.508 3.16-2.252 5.999-2.669 2.834-.417 1.886-3.548 1.98-3.5.091.047-.026-.672-.026-.672s-1.573-1.975-1.549-3.757c.023-1.782 0-2.951 0-2.951s-.058-4.228 2.844-4.228l1.786.779c2.606 0 2.79 3.449 2.79 3.449zm0 0" fill="#206FAC" sketch:type="MSShapeGroup"/><path d="M19.724 91.217v3.211s.006 2.44-1.627 3.351c0 0-.118.719-.023.672.091-.047-.282 3.229 2.556 3.646 2.836.417 4.942 2.161 5.475 2.669.535.508.895 4.234.895 4.234h-22s-.028-3.04.899-4.234c.536-.508 3.16-2.252 5.999-2.669 2.834-.417 1.886-3.548 1.98-3.5.091.047-.026-.672-.026-.672s-1.573-1.975-1.549-3.757c.023-1.782 0-2.951 0-2.951s-.058-4.228 2.844-4.228l1.786.779c2.606 0 2.79 3.449 2.79 3.449zm0 0" fill="#fff" sketch:type="MSShapeGroup"/><path d="M19.724 51.217v3.211s.006 2.44-1.627 3.351c0 0-.118.719-.023.672.091-.047-.282 3.229 2.556 3.646 2.836.417 4.942 2.161 5.475 2.669.535.508.895 4.234.895 4.234h-22s-.028-3.04.899-4.234c.536-.508 3.16-2.252 5.999-2.669 2.834-.417 1.886-3.548 1.98-3.5.091.047-.026-.672-.026-.672s-1.573-1.975-1.549-3.757c.023-1.782 0-2.951 0-2.951s-.058-4.228 2.844-4.228l1.786.779c2.606 0 2.79 3.449 2.79 3.449zm0 0" fill="#67737B" sketch:type="MSShapeGroup"/><path d="M19.724 11.217v3.211s.006 2.44-1.627 3.351c0 0-.118.719-.023.672.091-.047-.282 3.229 2.556 3.646 2.836.417 4.942 2.161 5.475 2.669.535.508.895 4.234.895 4.234h-22s-.028-3.04.899-4.234c.536-.508 3.16-2.252 5.999-2.669 2.834-.417 1.886-3.548 1.98-3.5.091.047-.026-.672-.026-.672s-1.573-1.975-1.549-3.757c.023-1.782 0-2.951 0-2.951s-.058-4.228 2.844-4.228l1.786.779c2.606 0 2.79 3.449 2.79 3.449zm0 0" fill="#3A434E" sketch:type="MSShapeGroup"/></g></svg>
